X: 1
T:Pigeon on the Gate, The
R:reel
H:See also #140
N:I've include some variations of the 1st part.
D:Davy Spillane: Atlantic Bridge
Z:id:hn-reel-532
M:C|
K:Edor
ed|Be~e2 Bede|~B3A BAFE|D3A FDAF|DEFA BAFA|
Be~e2 Bede|~B3A BAFA|(3DED FA dfec|dAFD E2ed|
Be~e2 Bede|~B3d BAFE|D3A FDAF|ADFD Adcd|
Be~e2 Bede|~B3d BAFA|DEFA dfec|dAFD E2||
|:FA|Beed edBA|(3Bcd ef gfeg|fddc dedB|AF~F2 DEFA|
Beed edBA|Bdef g2fg|afge fdec|dAFD E2:|
